configurations/icons/testIcon.svg

<svg xmlns="http://www.w3.org/2000/svg" width="892" height="436" viewBox="0 0 669 327">
   <path d="M294.98 23.77c19.67-.5 39.35-.35 59.02-.92 9.03.44 18.54-1.44 27.17 2.01 8.25 3.82 10.22 13.6 12.17 21.58.61 10.12.08 20.3.22 30.45.08 6.37-2.71 12.31-6.66 17.17 2.43 1.98 5.62 2.95 7.69 5.37 4.68 6.42 6.4 14.44 6.82 22.25.44 11.1.25 22.22-.18 33.32-1.03 8.28-3.26 17.63-10.6 22.62-7.45 4.24-16.28 4.35-24.62 4.22-10.99.54-21.98-.46-32.99-.11-13.15.4-26.46-.99-39.49 1.4-6.27-1.3-13.11-.6-18.85-3.85-4.85-3.65-7.01-9.75-8.09-15.52-1.66-10.18-.38-20.5-.81-30.75-.22-10.21-.37-21.51 6.38-29.91 2.32-3.57 6.3-5.26 9.99-7.02-2.38-2.29-5.43-4.23-6.58-7.49-3.03-8.18-1.82-17.04-2.14-25.57-.37-5.37.73-10.68.72-16.04-.06-6.09 2.11-12.2 5.9-16.96 3.59-4.36 9.44-6.15 14.93-6.25m2.01 2.07c-4.25.13-8.92-.11-12.44 2.7-4.09 2.37-6.27 6.78-7.85 11.05-3.06 11.22-1.79 22.93-2.08 34.4-.13 5.12.52 10.51 3.43 14.85 1.99 2.77 4.93 4.65 7.18 7.19-1.07 1.16-2.62 1.55-4.02 2.12-5.96 2.03-9.7 7.76-11.84 13.38-2.58 6.23-1.46 13.08-2.17 19.61-.81 6.27.23 12.57-.25 18.85-.49 8.25.18 17.1 4.84 24.19 2.59 4.09 7.4 6.46 12.22 6.29 18.99-.03 37.99-.23 56.99-.37 11.6-.7 23.23.59 34.84-.29 5.78-.47 12.11-1.34 16.6-5.34 7.82-8.78 8.08-21.35 7.89-32.46-.28-13.03 1.34-27.12-5.45-38.9-2.13-4.79-7.56-6.09-11.82-8.28 2.67-3.29 6.79-5.7 7.71-10.13 2.39-10.4 1.33-21.13 1.65-31.69-.57-8.49-2.17-17.7-8.44-23.97-3.28-3.43-8.41-3.23-12.77-3.54-24.74-.44-49.48.09-74.22.34Z" />
   <path d="M311.15 52.12c5.67.52 11.35.42 17.01-.17 11.14.74 22.34.14 33.49.6 4.43 1.69 5.27 7.11 7.25 10.91-1.06 6.7 1.75 14.64-3.22 20.23-3.71 5.06-10.72 4.08-16.21 4.52-14.12-1.03-28.28-.18-42.41-.53-5.95-.57-8.73-6.91-9.35-12.14-.46-6.1-.87-12.58 1.66-18.31 2.27-4.27 7.39-5.11 11.78-5.11m-6.67 2.41c-3.05 1.76-5.28 5.06-5.14 8.66.1 4.48-.1 8.97.03 13.46.48 4.33 3.63 9.53 8.59 9.13 16.01.81 32.04-.45 48.06.01 4.02.18 8.58-1.6 10.05-5.63 1.77-6.05 1.86-12.55.49-18.69-.79-3.32-3.32-6.58-6.9-7-4.21-.49-8.45-.25-12.67-.29-8 .11-15.98-.9-23.98-.36-6.17.34-12.43-.45-18.53.71ZM304.44 115.65c19.53-.43 39.09-.41 58.64-.41 5.47-.62 10.75 3.7 11.4 9.13.57 5.21.26 10.47.31 15.7.13 3.84-1.64 7.67-4.79 9.91-4.47 3.63-10.61 2.98-15.99 3.31-16.59-.44-33.18.65-49.76.17-5.01-.68-10.01-4.42-10.76-9.66-.74-4.57-.4-9.22-.6-13.82-.53-6.73 4.4-14.05 11.55-14.33m36.71 1.86c-10.38.08-20.76.25-31.15.1-4.62-.1-9.92.59-13.03 4.39-3.84 4.84-2.32 11.37-2.81 17.05-.42 5.47 3.36 11.14 8.89 12.12 7.58 1.37 15.32.36 22.98.54 7.34-.47 14.69-.13 22.02-.38 5.54-.79 11.17.96 16.62-.73 4.21-.7 7.83-4.28 8.25-8.58.63-5.31.63-10.69.24-16.01-.4-3.45-2.37-7.62-6.23-8.03-8.54-1.66-17.18-.17-25.78-.47Z" />
   <g>
      <path d="M282.98 22.05c3.59-.96 7.35-.62 11.02-.67 27.02-.08 54.05-.34 81.07.02 5.43.27 11.35 1.18 15.51 4.99 6.22 5.27 9.17 13.66 8.95 21.68.62 9.31-.96 18.63 0 27.9 0 4.48-.63 9.04-2.3 13.22-.68 2.21-4.5 2.71-3.86 5.36 2.69 2.01 6.13 3.12 8.11 5.98 3.67 4.58 5.38 10.26 6.33 15.96 1.93 5.17 2.4 10.68 2.74 16.14.46 4.1-2.34 7.49-3.7 11.15-1.9 4.13-2.21 8.74-1.67 13.2-.45 8.68-2.26 18.15-9.02 24.24-5.2 5.02-19.52 6.32-19.52 6.32L356 191.1l-23.1038 4.2416L313.11 191.9s-20.8-4.2-31.22-6.16c-6.54-.86-12.69-4.88-15.94-10.63-2.69-7.03-3.86-14.59-3.61-22.11.52-6.73-6.26-11.31-6.09-17.99-.47-6.21 2.18-11.97 3.85-17.81 2.96-7.45 6.57-15.05 13.04-20.09-6.5-6.59-6.68-16.47-6.6-25.14.31-13.36-1.53-27.5 4.45-39.96 2.17-4.99 6.89-8.41 11.99-9.96m12 1.72c-5.49.1-11.34 1.89-14.93 6.25-3.79 4.76-5.96 10.87-5.9 16.96.01 5.36-1.09 10.67-.72 16.04.32 8.53-.89 17.39 2.14 25.57 1.15 3.26 4.2 5.2 6.58 7.49-3.69 1.76-7.67 3.45-9.99 7.02-6.75 8.4-6.6 19.7-6.38 29.91.43 10.25-.85 20.57.81 30.75 1.08 5.77 3.24 11.87 8.09 15.52 5.74 3.25 15.3661 2.626 15.3661 2.626s29.8239.224 42.9739-.176c11.01-.35 22 .65 32.99.11 8.34.13 17.17.02 24.62-4.22 7.34-4.99 9.57-14.34 10.6-22.62.43-11.1.62-22.22.18-33.32-.42-7.81-2.14-15.83-6.82-22.25-2.07-2.42-5.26-3.39-7.69-5.37 3.95-4.86 6.74-10.8 6.66-17.17-.14-10.15.39-20.33-.22-30.45-1.95-7.98-3.92-17.76-12.17-21.58-8.63-3.45-18.14-1.57-27.17-2.01-19.67.57-39.35.42-59.02.92z" />
      <path d="M296.99 25.84c24.74-.25 49.48-.78 74.22-.34 4.36.31 9.49.11 12.77 3.54 6.27 6.27 7.87 15.48 8.44 23.97-.32 10.56.74 21.29-1.65 31.69-.92 4.43-5.04 6.84-7.71 10.13 4.26 2.19 9.69 3.49 11.82 8.28 6.79 11.78 5.17 25.87 5.45 38.9.19 11.11-.07 23.68-7.89 32.46-4.49 4-10.82 4.87-16.6 5.34-11.61.88-34.84.29-34.84.29s-38 .34-56.99.37c-4.82.17-9.63-2.2-12.22-6.29-4.66-7.09-5.33-15.94-4.84-24.19.48-6.28-.56-12.58.25-18.85.71-6.53-.41-13.38 2.17-19.61 2.14-5.62 5.88-11.35 11.84-13.38 1.4-.57 2.95-.96 4.02-2.12-2.25-2.54-5.19-4.42-7.18-7.19-2.91-4.34-3.56-9.73-3.43-14.85.29-11.47-.98-23.18 2.08-34.4 1.58-4.27 3.76-8.68 7.85-11.05 3.52-2.81 8.19-2.57 12.44-2.7m14.16 26.28c-4.39 0-9.6874.7503-11.78 5.11-2.7105 5.6469-2.2405 12.2203-1.66 18.31.4998 5.2429-.6953 11.6798 9.35 12.14 10.0452.4602 28.2589.1042 42.41.53 5.5051.1656 12.246.3436 16.21-4.52 4.7256-5.798 3.812-13.4726 3.22-20.23-.374-4.2685-2.5531-10.2618-7.25-10.91-11.0547-1.5255-39.3359-.3303-50.5-.43-5.6904-.0508 5.67.52 0 0m-6.71 63.53c-7.15.28-12.08 7.6-11.55 14.33.2 4.6-.14 9.25.6 13.82.75 5.24 5.75 8.98 10.76 9.66 16.58.48 33.17-.61 49.76-.17 5.38-.33 11.52.32 15.99-3.31 3.15-2.24 4.92-6.07 4.79-9.91-.05-5.23.26-10.49-.31-15.7-.65-5.43-5.93-9.75-11.4-9.13-19.55 0-39.11-.02-58.64.41zM636.5527 44.5305 332.8451 314.5734l.2432-46.2699s210.6491-154.457 303.4644-223.773z" />
      <path d="M304.48 54.53c6.1-1.16 12.3625-.327 18.53-.71 8.0028-.497 15.9794.4058 23.98.36 4.2201-.0242 8.46-.2 12.67.29 3.58.42 6.1403 3.673 6.9 7 1.4004 6.1331 1.28 12.64-.49 18.69-1.47 4.03-6.03 5.81-10.05 5.63-16.02-.46-32.05.8-48.06-.01-4.96.4-8.11-4.8-8.59-9.13-.13-4.49.07-8.98-.03-13.46-.14-3.6 2.09-6.9 5.14-8.66m1.05 2.24c-1.95 1.03-3.46 2.96-3.53 5.22-.5 4.99-.47 10.03-.17 15.03.16 3.23 2.58 7.06 6.24 6.59 15.98-.06 31.96.03 47.94.22 4.09.24 8.48-1.99 9.55-6.16.92-4.7.5-9.58-.09-14.29-.9-3.06-2.72-7.26-6.53-7.06-10.31.04-20.62-.12-30.93-.08-7.48-.49-15.05-.53-22.48.53zM586.53 69.26c11.37-5.34 34.53-15.18 34.53-15.18S421.1714 200.6063 333.455 264.9617l.775-67.7417s14.6-3.23 22.02-4.08c11.21-2.23 22.51-3.98 33.71-6.25 6.74-1.75 11.15-7.88 13.76-13.98 2.32-7.68 3.42-15.74 3.1-23.76 2.05-2.95 6.34-3.37 9.39-5.07 14.34-6.83 29.21-12.49 43.5-19.44 13.39-5.41 26.19-12.21 39.66-17.44 18.41-8.4 37.07-16.3 55.76-24.07 10.31-4.96 20.75-9.68 31.4-13.87zM35.5194 51.9476 331.98 268.15l-.0418 46.74zM42.9442 56.7858s2.76.72 4.09 1.24c21.73 9.1 43.17 18.86 64.94 27.86 12.17 4.62 23.7558 10.5142 35.9058 15.1642 7.17 3.33 14.7 5.8 21.79 9.31 29.97 12.29 59.48 25.71 89.12 38.81.34.23 1.03.7 1.37.93.11 6.51 1.64 12.84 2.66 19.24.91 5.13 4.09 9.52 7.61 13.21 8.58 6.06 19.42 6.45 29.35 8.62 10.76 1.75 21.45 3.87 32.12 6.08.93 2.1.51 4.5.61 6.75-.38 20.31-.56 60.94-.56 60.94z" />
      <path d="M36.6624 52.8406 249.6 136.43l5.45 2.54 3.9 7.96zM341.15 117.51c8.6.3 17.24-1.19 25.78.47 3.86.41 5.83 4.58 6.23 8.03.39 5.32.39 10.7-.24 16.01-.42 4.3-4.04 7.88-8.25 8.58-5.45 1.69-16.62.73-16.62.73l-22.02.38s-15.4.83-22.98-.54c-5.53-.98-9.31-6.65-8.89-12.12.49-5.68-1.03-12.21 2.81-17.05 3.11-3.8 8.41-4.49 13.03-4.39 10.39.15 20.77-.02 31.15-.1m-37.77 3.01c-3.48.75-5.242 3.2459-6.69 7.26-1.448 4.0141-1.31 10.81.82 15.71 1.57 3.58 5.88 4.59 9.44 4.59 17.67-.59 35.37-.43 53.05-.44 3.02-.15 6.8-.23 8.64-3.06 3.39-4.42 3.31-10.94 2.94-15.54-.37-4.6-3.08-7.79-7.16-8.35-14.1-1.41-32.2608-.7766-32.2608-.7766s-22.5992.1366-28.7792.6066z" />
   </g>
   <path d="m636.6891 46.3482-228.7733 99.2277 4.251-8.922z" />
</svg>

<?xml version="1.0" encoding="UTF-8" standalone="no"?>
<svg
   xmlns:dc="http://purl.org/dc/elements/1.1/"
   xmlns:cc="http://creativecommons.org/ns#"
   xmlns:rdf="http://www.w3.org/1999/02/22-rdf-syntax-ns#"
   xmlns:svg="http://www.w3.org/2000/svg"
   xmlns="http://www.w3.org/2000/svg"
   xmlns:sodipodi="http://sodipodi.sourceforge.net/DTD/sodipodi-0.dtd"
   xmlns:inkscape="http://www.inkscape.org/namespaces/inkscape"
   width="669pt"
   height="327pt"
   viewBox="0 0 669 327"
   version="1.1"
   id="svg2"
   inkscape:version="0.48.2 r9819"
   sodipodi:docname="v8logo.svg">
  <metadata
     id="metadata36">
    <rdf:RDF>
      <cc:Work
         rdf:about="">
        <dc:format>image/svg+xml</dc:format>
        <dc:type
           rdf:resource="http://purl.org/dc/dcmitype/StillImage" />
      </cc:Work>
    </rdf:RDF>
  </metadata>
  <defs
     id="defs34" />
  <sodipodi:namedview
     pagecolor="#ffffff"
     bordercolor="#666666"
     borderopacity="1"
     objecttolerance="10"
     gridtolerance="10"
     guidetolerance="10"
     inkscape:pageopacity="0"
     inkscape:pageshadow="2"
     inkscape:window-width="1024"
     inkscape:window-height="551"
     id="namedview32"
     showgrid="false"
     inkscape:snap-page="true"
     inkscape:zoom="0.7509716"
     inkscape:cx="448.2285"
     inkscape:cy="254.23708"
     inkscape:window-x="-4"
     inkscape:window-y="-4"
     inkscape:window-maximized="1"
     inkscape:current-layer="svg2" />
  <g
     id="#f5f4f4ff">
    <path
       fill="#f5f4f4"
       opacity="1.00"
       d=" M 294.98 23.77 C 314.65 23.27 334.33 23.42 354.00 22.85 C 363.03 23.29 372.54 21.41 381.17 24.86 C 389.42 28.68 391.39 38.46 393.34 46.44 C 393.95 56.56 393.42 66.74 393.56 76.89 C 393.64 83.26 390.85 89.20 386.90 94.06 C 389.33 96.04 392.52 97.01 394.59 99.43 C 399.27 105.85 400.99 113.87 401.41 121.68 C 401.85 132.78 401.66 143.90 401.23 155.00 C 400.20 163.28 397.97 172.63 390.63 177.62 C 383.18 181.86 374.35 181.97 366.01 181.84 C 355.02 182.38 344.03 181.38 333.02 181.73 C 319.87 182.13 306.56 180.74 293.53 183.13 C 287.26 181.83 280.42 182.53 274.68 179.28 C 269.83 175.63 267.67 169.53 266.59 163.76 C 264.93 153.58 266.21 143.26 265.78 133.01 C 265.56 122.80 265.41 111.50 272.16 103.10 C 274.48 99.53 278.46 97.84 282.15 96.08 C 279.77 93.79 276.72 91.85 275.57 88.59 C 272.54 80.41 273.75 71.55 273.43 63.02 C 273.06 57.65 274.16 52.34 274.15 46.98 C 274.09 40.89 276.26 34.78 280.05 30.02 C 283.64 25.66 289.49 23.87 294.98 23.77 M 296.99 25.84 C 292.74 25.97 288.07 25.73 284.55 28.54 C 280.46 30.91 278.28 35.32 276.70 39.59 C 273.64 50.81 274.91 62.52 274.62 73.99 C 274.49 79.11 275.14 84.50 278.05 88.84 C 280.04 91.61 282.98 93.49 285.23 96.03 C 284.16 97.19 282.61 97.58 281.21 98.15 C 275.25 100.18 271.51 105.91 269.37 111.53 C 266.79 117.76 267.91 124.61 267.20 131.14 C 266.39 137.41 267.43 143.71 266.95 149.99 C 266.46 158.24 267.13 167.09 271.79 174.18 C 274.38 178.27 279.19 180.64 284.01 180.47 C 303.00 180.44 322.00 180.24 341.00 180.10 C 352.60 179.40 364.23 180.69 375.84 179.81 C 381.62 179.34 387.95 178.47 392.44 174.47 C 400.26 165.69 400.52 153.12 400.33 142.01 C 400.05 128.98 401.67 114.89 394.88 103.11 C 392.75 98.32 387.32 97.02 383.06 94.83 C 385.73 91.54 389.85 89.13 390.77 84.70 C 393.16 74.30 392.10 63.57 392.42 53.01 C 391.85 44.52 390.25 35.31 383.98 29.04 C 380.70 25.61 375.57 25.81 371.21 25.50 C 346.47 25.06 321.73 25.59 296.99 25.84 Z"
       id="path5" />
    <path
       fill="#f5f4f4"
       opacity="1.00"
       d=" M 311.15 52.12 C 316.82 52.64 322.50 52.54 328.16 51.95 C 339.30 52.69 350.50 52.09 361.65 52.55 C 366.08 54.24 366.92 59.66 368.90 63.46 C 367.84 70.16 370.65 78.10 365.68 83.69 C 361.97 88.75 354.96 87.77 349.47 88.21 C 335.35 87.18 321.19 88.03 307.06 87.68 C 301.11 87.11 298.33 80.77 297.71 75.54 C 297.25 69.44 296.84 62.96 299.37 57.23 C 301.64 52.96 306.76 52.12 311.15 52.12 M 304.48 54.53 C 301.43 56.29 299.20 59.59 299.34 63.19 C 299.44 67.67 299.24 72.16 299.37 76.65 C 299.85 80.98 303.00 86.18 307.96 85.78 C 323.97 86.59 340.00 85.33 356.02 85.79 C 360.04 85.97 364.60 84.19 366.07 80.16 C 367.84 74.11 367.93 67.61 366.56 61.47 C 365.77 58.15 363.24 54.89 359.66 54.47 C 355.45 53.98 351.21 54.22 346.99 54.18 C 338.99 54.29 331.01 53.28 323.01 53.82 C 316.84 54.16 310.58 53.37 304.48 54.53 Z"
       id="path7" />
    <path
       fill="#f5f4f4"
       opacity="1.00"
       d=" M 304.44 115.65 C 323.97 115.22 343.53 115.24 363.08 115.24 C 368.55 114.62 373.83 118.94 374.48 124.37 C 375.05 129.58 374.74 134.84 374.79 140.07 C 374.92 143.91 373.15 147.74 370.00 149.98 C 365.53 153.61 359.39 152.96 354.01 153.29 C 337.42 152.85 320.83 153.94 304.25 153.46 C 299.24 152.78 294.24 149.04 293.49 143.80 C 292.75 139.23 293.09 134.58 292.89 129.98 C 292.36 123.25 297.29 115.93 304.44 115.65 M 341.15 117.51 C 330.77 117.59 320.39 117.76 310.00 117.61 C 305.38 117.51 300.08 118.20 296.97 122.00 C 293.13 126.84 294.65 133.37 294.16 139.05 C 293.74 144.52 297.52 150.19 303.05 151.17 C 310.63 152.54 318.37 151.53 326.03 151.71 C 333.37 151.24 340.72 151.58 348.05 151.33 C 353.59 150.54 359.22 152.29 364.67 150.60 C 368.88 149.90 372.50 146.32 372.92 142.02 C 373.55 136.71 373.55 131.33 373.16 126.01 C 372.76 122.56 370.79 118.39 366.93 117.98 C 358.39 116.32 349.75 117.81 341.15 117.51 Z"
       id="path9" />
  </g>
  <g
     id="#1c1c22ff">
    <path
       d="m 282.98,22.05 c 3.59,-0.96 7.35,-0.62 11.02,-0.67 27.02,-0.08 54.05,-0.34 81.07,0.02 5.43,0.27 11.35,1.18 15.51,4.99 6.22,5.27 9.17,13.66 8.95,21.68 0.62,9.31 -0.96,18.63 0,27.9 0,4.48 -0.63,9.04 -2.3,13.22 -0.68,2.21 -4.5,2.71 -3.86,5.36 2.69,2.01 6.13,3.12 8.11,5.98 3.67,4.58 5.38,10.26 6.33,15.96 1.93,5.17 2.4,10.68 2.74,16.14 0.46,4.1 -2.34,7.49 -3.7,11.15 -1.9,4.13 -2.21,8.74 -1.67,13.2 -0.45,8.68 -2.26,18.15 -9.02,24.24 -5.2,5.02 -19.52,6.32 -19.52,6.32 L 356,191.1 332.89617,195.34159 313.11,191.9 c 0,0 -20.8,-4.2 -31.22,-6.16 -6.54,-0.86 -12.69,-4.88 -15.94,-10.63 -2.69,-7.03 -3.86,-14.59 -3.61,-22.11 0.52,-6.73 -6.26,-11.31 -6.09,-17.99 -0.47,-6.21 2.18,-11.97 3.85,-17.81 2.96,-7.45 6.57,-15.05 13.04,-20.09 -6.5,-6.59 -6.68,-16.47 -6.6,-25.14 0.31,-13.36 -1.53,-27.5 4.45,-39.96 2.17,-4.99 6.89,-8.41 11.99,-9.96 m 12,1.72 c -5.49,0.1 -11.34,1.89 -14.93,6.25 -3.79,4.76 -5.96,10.87 -5.9,16.96 0.01,5.36 -1.09,10.67 -0.72,16.04 0.32,8.53 -0.89,17.39 2.14,25.57 1.15,3.26 4.2,5.2 6.58,7.49 -3.69,1.76 -7.67,3.45 -9.99,7.02 -6.75,8.4 -6.6,19.7 -6.38,29.91 0.43,10.25 -0.85,20.57 0.81,30.75 1.08,5.77 3.24,11.87 8.09,15.52 5.74,3.25 15.36612,2.62593 15.36612,2.62593 0,0 29.82388,0.22407 42.97388,-0.17593 11.01,-0.35 22,0.65 32.99,0.11 8.34,0.13 17.17,0.02 24.62,-4.22 7.34,-4.99 9.57,-14.34 10.6,-22.62 0.43,-11.1 0.62,-22.22 0.18,-33.32 -0.42,-7.81 -2.14,-15.83 -6.82,-22.25 -2.07,-2.42 -5.26,-3.39 -7.69,-5.37 3.95,-4.86 6.74,-10.8 6.66,-17.17 -0.14,-10.15 0.39,-20.33 -0.22,-30.45 -1.95,-7.98 -3.92,-17.76 -12.17,-21.58 -8.63,-3.45 -18.14,-1.57 -27.17,-2.01 -19.67,0.57 -39.35,0.42 -59.02,0.92 z"
       id="path12"
       inkscape:connector-curvature="0"
       style="fill:#1c1c22"
       sodipodi:nodetypes="cccccccccccccccccccccccccccccccccccccccccccccccccc" />
    <path
       d="m 296.99,25.84 c 24.74,-0.25 49.48,-0.78 74.22,-0.34 4.36,0.31 9.49,0.11 12.77,3.54 6.27,6.27 7.87,15.48 8.44,23.97 -0.32,10.56 0.74,21.29 -1.65,31.69 -0.92,4.43 -5.04,6.84 -7.71,10.13 4.26,2.19 9.69,3.49 11.82,8.28 6.79,11.78 5.17,25.87 5.45,38.9 0.19,11.11 -0.07,23.68 -7.89,32.46 -4.49,4 -10.82,4.87 -16.6,5.34 -11.61,0.88 -34.84,0.29 -34.84,0.29 0,0 -38,0.34 -56.99,0.37 -4.82,0.17 -9.63,-2.2 -12.22,-6.29 -4.66,-7.09 -5.33,-15.94 -4.84,-24.19 0.48,-6.28 -0.56,-12.58 0.25,-18.85 0.71,-6.53 -0.41,-13.38 2.17,-19.61 2.14,-5.62 5.88,-11.35 11.84,-13.38 1.4,-0.57 2.95,-0.96 4.02,-2.12 -2.25,-2.54 -5.19,-4.42 -7.18,-7.19 -2.91,-4.34 -3.56,-9.73 -3.43,-14.85 0.29,-11.47 -0.98,-23.18 2.08,-34.4 1.58,-4.27 3.76,-8.68 7.85,-11.05 3.52,-2.81 8.19,-2.57 12.44,-2.7 m 14.16,26.28 c -4.39,0 -9.68736,0.750337 -11.78,5.11 -2.71049,5.64686 -2.24048,12.220284 -1.66,18.31 0.49976,5.242856 -0.69525,11.679759 9.35,12.14 10.04525,0.460241 28.25889,0.10424 42.41,0.53 5.50511,0.165631 12.24604,0.343613 16.21,-4.52 4.72558,-5.798093 3.81208,-13.472557 3.22,-20.23 -0.37401,-4.26855 -2.5531,-10.26184 -7.25,-10.91 -11.05472,-1.525523 -39.33589,-0.33032 -50.5,-0.43 -5.69044,-0.05081 5.67,0.52 0,0 m -6.71,63.53 c -7.15,0.28 -12.08,7.6 -11.55,14.33 0.2,4.6 -0.14,9.25 0.6,13.82 0.75,5.24 5.75,8.98 10.76,9.66 16.58,0.48 33.17,-0.61 49.76,-0.17 5.38,-0.33 11.52,0.32 15.99,-3.31 3.15,-2.24 4.92,-6.07 4.79,-9.91 -0.05,-5.23 0.26,-10.49 -0.31,-15.7 -0.65,-5.43 -5.93,-9.75 -11.4,-9.13 -19.55,0 -39.11,-0.02 -58.64,0.41 z"
       id="path14"
       inkscape:connector-curvature="0"
       style="fill:#1c1c22"
       sodipodi:nodetypes="ccccccccccccccccccccccccsszsssssccccccccccc" />
    <path
       d="m 636.55271,44.530465 -303.70766,270.042895 0.24327,-46.26981 c 0,0 210.64912,-154.45711 303.46439,-223.773085 z"
       id="path18"
       inkscape:connector-curvature="0"
       style="fill:#1c1c22"
       sodipodi:nodetypes="cccc" />
    <path
       d="m 304.48,54.53 c 6.1,-1.16 12.36252,-0.326981 18.53,-0.71 8.00279,-0.496997 15.97938,0.40583 23.98,0.36 4.22012,-0.02417 8.46,-0.2 12.67,0.29 3.58,0.42 6.14033,3.672929 6.9,7 1.40038,6.133143 1.28,12.64 -0.49,18.69 -1.47,4.03 -6.03,5.81 -10.05,5.63 -16.02,-0.46 -32.05,0.8 -48.06,-0.01 -4.96,0.4 -8.11,-4.8 -8.59,-9.13 -0.13,-4.49 0.07,-8.98 -0.03,-13.46 -0.14,-3.6 2.09,-6.9 5.14,-8.66 m 1.05,2.24 c -1.95,1.03 -3.46,2.96 -3.53,5.22 -0.5,4.99 -0.47,10.03 -0.17,15.03 0.16,3.23 2.58,7.06 6.24,6.59 15.98,-0.06 31.96,0.03 47.94,0.22 4.09,0.24 8.48,-1.99 9.55,-6.16 0.92,-4.7 0.5,-9.58 -0.09,-14.29 -0.9,-3.06 -2.72,-7.26 -6.53,-7.06 -10.31,0.04 -20.62,-0.12 -30.93,-0.08 -7.48,-0.49 -15.05,-0.53 -22.48,0.53 z"
       id="path20"
       inkscape:connector-curvature="0"
       style="fill:#1c1c22"
       sodipodi:nodetypes="csscscccccccccccccccc" />
    <g
       id="g3047">
      <g
         id="g3050">
        <path
           d="m 586.53,69.26 c 11.37,-5.34 34.53,-15.18 34.53,-15.18 0,0 -199.88856,146.5263 -287.60495,210.88168 L 334.23,197.22 c 0,0 14.6,-3.23 22.02,-4.08 11.21,-2.23 22.51,-3.98 33.71,-6.25 6.74,-1.75 11.15,-7.88 13.76,-13.98 2.32,-7.68 3.42,-15.74 3.1,-23.76 2.05,-2.95 6.34,-3.37 9.39,-5.07 14.34,-6.83 29.21,-12.49 43.5,-19.44 13.39,-5.41 26.19,-12.21 39.66,-17.44 18.41,-8.4 37.07,-16.3 55.76,-24.07 10.31,-4.96 20.75,-9.68 31.4,-13.87 z"
           id="path22"
           inkscape:connector-curvature="0"
           style="fill:#1c1c22"
           sodipodi:nodetypes="ccccccccccccc" />
      </g>
    </g>
    <path
       d="M 35.519408,51.947578 331.98,268.15 l -0.0418,46.74 z"
       id="path24"
       inkscape:connector-curvature="0"
       style="fill:#1c1c22"
       sodipodi:nodetypes="cccc" />
    <path
       d="m 42.944159,56.785841 c 0,0 2.76,0.72 4.09,1.24 21.73,9.1 43.17,18.86 64.940001,27.86 12.17,4.62 23.75584,10.514159 35.90584,15.164159 7.17,3.33 14.7,5.8 21.79,9.31 29.97,12.29 59.48,25.71 89.12,38.81 0.34,0.23 1.03,0.7 1.37,0.93 0.11,6.51 1.64,12.84 2.66,19.24 0.91,5.13 4.09,9.52 7.61,13.21 8.58,6.06 19.42,6.45 29.35,8.62 10.76,1.75 21.45,3.87 32.12,6.08 0.93,2.1 0.51,4.5 0.61,6.75 -0.38,20.31 -0.56,60.94 -0.56,60.94 z"
       id="path26"
       inkscape:connector-curvature="0"
       style="fill:#1c1c22"
       sodipodi:nodetypes="cccccccccccccc" />
    <path
       d="M 36.662398,52.840645 249.6,136.43 l 5.45,2.54 3.9,7.96 z"
       id="path28"
       inkscape:connector-curvature="0"
       style="fill:#1c1c22"
       sodipodi:nodetypes="ccccc" />
    <path
       d="m 341.15,117.51 c 8.6,0.3 17.24,-1.19 25.78,0.47 3.86,0.41 5.83,4.58 6.23,8.03 0.39,5.32 0.39,10.7 -0.24,16.01 -0.42,4.3 -4.04,7.88 -8.25,8.58 -5.45,1.69 -16.62,0.73 -16.62,0.73 l -22.02,0.38 c 0,0 -15.4,0.83 -22.98,-0.54 -5.53,-0.98 -9.31,-6.65 -8.89,-12.12 0.49,-5.68 -1.03,-12.21 2.81,-17.05 3.11,-3.8 8.41,-4.49 13.03,-4.39 10.39,0.15 20.77,-0.02 31.15,-0.1 m -37.77,3.01 c -3.48,0.75 -5.24197,3.2459 -6.69,7.26 -1.44803,4.0141 -1.31,10.81 0.82,15.71 1.57,3.58 5.88,4.59 9.44,4.59 17.67,-0.59 35.37,-0.43 53.05,-0.44 3.02,-0.15 6.8,-0.23 8.64,-3.06 3.39,-4.42 3.31,-10.94 2.94,-15.54 -0.37,-4.6 -3.08,-7.79 -7.16,-8.35 -14.1,-1.41 -32.26084,-0.77664 -32.26084,-0.77664 0,0 -22.59916,0.13664 -28.77916,0.60664 z"
       id="path30"
       inkscape:connector-curvature="0"
       style="fill:#1c1c22"
       sodipodi:nodetypes="cccccccccccccscccczccc" />
  </g>
  <path
     d="m 636.68914,46.348179 -228.77335,99.227731 4.25104,-8.92207 z"
     id="path16"
     inkscape:connector-curvature="0"
     style="fill:#1c1c22"
     sodipodi:nodetypes="cccc" />
</svg>
